X:1
T:Title
%%score 1 { 2 | 3 }
L:1/8
Q:1/4=90
M:6/8
K:Bb
V:1 treble nm="Grand Piano, Soprano"
V:2 bass nm="Choir Pad, Elez, LMD"
V:3 bass 
V:1
 [DF][DB][DB] [DB][DB][B,D] | [B,E] [DF]2- [DF]2- [DF]/ z/ | [DF][Fc][Fc] [Fc][Fc][Fc] | %3
w: By~B.~F.~Alleman,~1885 * * * * *|||
 [Fd] [Fc]2- [Fc]2- [Fc]/ z/ | [Fd][DB][DB] [DB][DB][Fd] | [FB] [EG]2- [EG]2- [EG]/ z/ | %6
w: |||
 [EG][DF][FB] [Bd][Bf][Ae] | [Fc] [FB]2- [FB]2- [FB]/ z/ | [FB]/[FB]/[Fc][Fc] [Fc][Fc][Af] | %9
w: |||
 [Af] [Bf]2- [Bf] [Fd]2 | [FB][Fc][Fc] [Fc][Fc][Ff] | [Fe] [Fd]2- [Fd]2- [Fd]/ z/ | %12
w: |||
 [DF][FB][FB] [FB][FB][Fd] | [FB] [EG]2- [EG]2- [EG]/ z/ | [Ge][Fd][FB] [Fd][Fc][FA] | %15
w: |||
 [Fc] [FB]2- [FB]3- | [FB]3 z3 |] %17
w: ||
V:2
 B,F,F, F,F,F, | F, B,2- B,2- B,/ z/ | B,A,A, A,A,B, | B, A,2- A,2- A,/ z/ | B,F,F, F,F,B, | %5
 B, B,2- B,2- B,/ z/ | B,B,B, B,[K:treble]DC | E D2- D2- D/ z/ | B,/B,/A,A, A,A,[K:treble]C | %9
 C D2- D B,2 | B,A,A, A,A,D | C B,2- B,2- B,/ z/ | B,[K:treble]DD DDB, | B, B,2- B,2- B,/ z/ | %14
 B,B,B, B,A,[K:treble]C | E D2- D3- | D3 z3 |] %17
V:3
 B,,B,,B,, B,,B,,B,, | B,, B,,2- B,,2- B,,/ z/ | B,,F,F, F,F,F, | F, F,2- F,2- F,/ z/ | %4
 F,B,,B,, B,,B,,B,, | D, E,2- E,2- E,/ z/ | E,F,F, F,F,F, | F, B,,2- B,,2- B,,/ z/ | %8
 B,,/B,,/F,F, F,F,F, | F, B,2- B, z z | B,,F,F, F,F,F, | F, B,,2- B,,2- B,,/ z/ | %12
 B,,B,,B,, B,,B,,B,, | D, E,2- E,2- E,/ z/ | E,F,F, F,F,F, | F, B,,2- B,,3- | B,,3 z3 |] %17

